X: 193
T: Baharla Hazan Birleşemez
C: Avni Anıl
O: Turkey
F: http://compmusic.upf.edu/node/140
N: acemkurdi--sarki--duyek--baharla_hazan--avni_anil
N: makam= acemkurdi
N: form= sarki
N: usul= duyek = 8/4
M: 8/4
L: 1/16
K: C _B   
Q: 1/4=144
%%MIDI tuningsystem comma53
z2 a4 a2 a4 b4  | z2 g4 g2 g4 a4  | z2 f4 f2 f8  | \
w:   |   |   | 
z2 fg ef de cd Bc AB GA  | 
w:   | 
F16  | z2 a4 a2 a4 b4  | z2 g4 g2 g4 a4  | \
w:   |   |   | 
z2 f4 f2 f8  | z2 fg ef de cd Bc AB GA  | 
w:   |   | 
F16  | e2 f6 f8  | (3b2a2c'2 (3a2g2b2 (3g2f2a2 f4  | \
w:   |  Ba har la   |  ha zan   | 
d2 dc d2 e2 f8  | z2 B4 B2 B2 c2 {d}cB {B}BA  | 
w:  bir *  *  le şe mez   |  or ta da  *  *  yaz   | 
A16  | z2 a4 a2 a4 b4  | z2 g4 g2 g4 a4  | \
w:  var    |  SAZ  |   | 
f2 f4 ed cB AG F4  | e2 f6 f8  | 
w:   |  Ba har la   | 
(3b2a2c'2 (3a2g2b2 (3g2f2a2 f4  | \
w:  ha zan   | 
d2 dc d2 e2 f8  | z2 B4 B2 B2 c2 {d}cB {B}BA  | 
w:  bir *  *  le şe mez   |  or ta da  *  *  yaz   | 
A16  | z2 a4 a2 a4 b4  | z2 g4 g2 g4 a4  | \
w:  var    |  SAZ  |   | 
f2 f6 zc de f4  | z2 a4 a2 b/a/b/c'/ ba g^3/4f ga  | 
w:   |  Sen  ba ha *  *  *  *  *  rın  | 
b6 a2 g2 ^3/4f2 g4  | z2 g4 b2 a2 g2 f2 _e2  | \
w:  da  çi çek *  len   |  ben  ha za *  nım  | 
d4 c2 d2 _e3/2f/ ed c2 B2  | 
w:  da  so la yım   | 
A2 A2 B2 c2 A8  | z2 a4 a2 a4 b4  | z2 g4 g2 g4 a4  | \
w:  *  sev gi li  yâr    |  SAZ  |   | 
f2 f6 zc de f4  | 
w:   | 
z2 a4 a2 b/a/b/c'/ ba g^3/4f ga  | \
w:  Sen  ba ha *  *  *  *  *  rın  | 
b6 a2 g2 ^3/4f2 g4  | z2 g4 b2 a2 g2 f2 _e2  | 
w:  da  çi çek *  len   |  ben  ha za *  nım  | 
d4 c2 d2 _e3/2f/ ed c2 B2  | A2 A2 B2 c2 A8  | \
w:  da  so la yım   |  *  sev gi li  yâr    | 
z2 a4 a2 a4 b4  | z2 g4 g2 g4 a4  | 
w:  SAZ  |   | 
a2 a6 a4 a4  | z2 a6 a8  | z2 a4 a2 a4 b4  | \
w:   |  Sen de   |  râ yi ha   | 
z2 g6 g8  | z2 a4 f2 ef ge f4  | 
w:  sen de   |  renk  *  ben *  *  *  de   | 
z2 a2 g2 f2 e2 {a}gf f4  | z2 a4 a2 a4 b4  | \
w:  ha tı ra lar  *  *  *  var    |  SAZ  | 
z2 g4 g2 g4 a4  | f2 f6 zc de f4  | 
w:   |   | 
z2 a4 a2 b/a/b/c'/ ba g^3/4f ga  | \
w:  Sen  ba ha *  *  *  *  *  rın  | 
b6 a2 g2 ^3/4f2 g4  | z2 g4 b2 a2 g2 f2 _e2  | 
w:  da  çi çek *  len   |  ben  ha za *  nım  | 
d4 c2 d2 _e3/2f/ ed c2 B2  | A2 A2 B2 c2 A8  | |


